icons/keynote-fill.svg

<svg viewBox="0 0 24 24" fill="currentColor" xmlns="http://www.w3.org/2000/svg">
    <path d="M18.9992 2C19.552 2 20.086 2.42969 20.1955 2.97705L21.8047 11.023C21.9126 11.5626 21.5448 12 21.0083 12H12.9998V20H17.0001V22H7.00006V20H10.9998V12H2.99187C2.44411 12 2.086 11.5703 2.19547 11.023L3.80465 2.97705C3.91258 2.43744 4.4447 2 5.00094 2H18.9992Z"/>
</svg>

<svg xmlns="http://www.w3.org/2000/svg" viewBox="0 0 24 24">
    <g>
        <path fill="none" d="M0 0h24v24H0z"/>
        <path d="M13 12v8h4v2H7v-2h4v-8H2.992c-.548 0-.906-.43-.797-.977l1.61-8.046C3.913 2.437 4.445 2 5 2h13.998c.553 0 1.087.43 1.196.977l1.61 8.046c.108.54-.26.977-.797.977H13z"/>
    </g>
</svg>
